!!!OTL: Der Faltenrock. (De Paltrock.)
!!!ARE: Europa, Mitteleuropa, Deutschland
!!!SCT: A0461
!!!TXL: @@NDS
!!!YEM: Copyright 1995, estate of Helmut Schaffrath.
**kern	**text
*M4/4	*
*met(c)	*
*clefC4	*
*k[b-]	*
*F:ion	*
!LO:TX:a:t=jon.	!
{4F	Es
=1	=1
4c	ließ
8c	ſich
8c	ein
4d	Bawr
4d	ein
=2	=2
4c	Bald-
4c	-rock
4A}	ſchneidn,
{4F	Es
=3	=3
4c	ließ
8c	ſich
8c	ein
4d	Bawr
4d	ein
=4	=4
4c	Bald-
4c	-rock
4A}	ſchneidn,
{4c	von
=5	=5
4B-\	ſie-
4A/	-benʒehn
4G	Elln,
4c	von
=6	=6
4B-\	ſie-
4A/	-benʒehn
4G	Elln,
4B-	und
=7	=7
4A/	ein
4G	Quar-
!LO:N:vis=2	!
!LO:TX:a:t=P:2f in the source:problem	!
4F}	-tier.
==	==
!!!GTL: Scherz-, Spott- und Schandlieder
!!!AGN: Romanze, Ballade, Lied
!! Nic. Zange 1620 No. 25.
!!!ONB: ESAC (Essen Associative Code) Database: ALTDEU
!!!AMT: simple quadruple
!!!AIN: vox
!!!EED: Helmut Schaffrath
!!!EEV: 1.0
!!!URL-scan: https://rosdok.uni-rostock.de/mcrviewer/recordIdentifier/rosdok_ppn738218359/iview2/phys_0649.iview2?x=-495.6391625615763&y=254.02758620446548&scale=0.4629418472063854&rotation=0&layout=singlePageLayout&logicalDiv=log_0018
!!!ENC: Anna Maria Matuszewska
!!!EEV: 2024/18/03
*-	*-
